X:1
T: Largo Law
C:
R:Strathspey
Q: 128
K:A
M:4/4
L:1/16
|:c2|Ac3 E3F A3B c3e|fa3 e3c BBB2 B3c|Ac3 E3F A3B c3e|fefg a2e2 cA3 A2c2|
Ac3 E3F A3B c3e|fa3 e3c BBB2 B3c|Ac3 E3F A3B c3e|fefg a2e2 cA3 A2e2|
a3e f3d eee2 a3e|fa3 e3c BBB2 B3g|a3e f3d eee2 a3e|fa3 e3c AAA2 A2e2|
a3e f3d eee2 a3e|fa3 e3c BBB2 B3c|Ac3 E3F A3B c3e|fefg a2e2 cA3 A2:|
